assets/02_eyes/Eye 38.svg

<svg width="400" height="180" viewBox="0 0 400 180" fill="none" xmlns="http://www.w3.org/2000/svg">
<g clip-path="url(#clip0_70_1535)">
<g clip-path="url(#clip1_70_1535)">
<path d="M111 7.62939e-06C111 49.7071 151.517 90 201.5 90C251.483 90 292 49.7071 292 7.62939e-06H111Z" fill="white"/>
<path d="M201.5 7.62939e-06C226.491 7.62939e-06 246.75 20.1472 246.75 45C246.75 69.8528 226.491 90 201.5 90C176.509 90 156.25 69.8528 156.25 45C156.25 20.1472 176.509 7.62939e-06 201.5 7.62939e-06Z" fill="#FFCF4B"/>
<path d="M227.321 19.0112C227.321 19.0112 200.731 43.9484 176.244 19.576C200.752 43.9484 175.676 70.371 175.676 70.371C198.143 48.0279 225.091 68.1325 225.091 68.1325C225.091 68.1325 204.875 41.3333 227.342 18.9902L227.321 19.0112Z" fill="white"/>
</g>
<g clip-path="url(#clip2_70_1535)">
<path d="M110 90.5433L110 90L290 90L290 90.5641C289.686 139.897 249.523 179.786 200 179.786C150.477 179.786 110.272 139.876 110 90.5433Z" fill="white"/>
<path d="M136.51 90L263.469 90C263.469 124.978 235.053 153.354 200 153.354C164.946 153.354 136.51 124.978 136.51 90Z" fill="#0065B1"/>
<path d="M171.689 90L228.311 90C228.311 105.588 215.642 118.229 200.021 118.229C184.399 118.229 171.71 105.588 171.71 90L171.689 90Z" fill="white"/>
</g>
</g>
<defs>
<clipPath id="clip0_70_1535">
<rect width="400" height="180" fill="white"/>
</clipPath>
<clipPath id="clip1_70_1535">
<rect width="181" height="90" fill="white" transform="matrix(1 0 0 -1 111 90)"/>
</clipPath>
<clipPath id="clip2_70_1535">
<rect width="180" height="90" fill="white" transform="translate(290 180) rotate(180)"/>
</clipPath>
</defs>
</svg>

<svg xmlns="http://www.w3.org/2000/svg" width="400" height="180" fill="none" viewBox="0 0 400 180"><g clip-path="url(#a)"><g clip-path="url(#b)"><path fill="#fff" d="M111 0c0 49.707 40.517 90 90.5 90S292 49.707 292 0z"/><path fill="#ffcf4b" d="M201.5 0c24.991 0 45.25 20.147 45.25 45s-20.259 45-45.25 45-45.25-20.147-45.25-45S176.509 0 201.5 0"/><path fill="#fff" d="M227.321 19.011s-26.59 24.937-51.077.565c24.508 24.372-.568 50.795-.568 50.795 22.467-22.343 49.415-2.239 49.415-2.239s-20.216-26.799 2.251-49.142z"/></g><g clip-path="url(#c)"><path fill="#fff" d="M110 90.543V90h180v.564c-.314 49.333-40.477 89.222-90 89.222s-89.728-39.91-90-89.243"/><path fill="#0065b1" d="M136.51 90h126.959c0 34.978-28.416 63.354-63.469 63.354-35.054 0-63.49-28.376-63.49-63.354"/><path fill="#fff" d="M171.689 90h56.622c0 15.588-12.669 28.229-28.29 28.229-15.622 0-28.311-12.641-28.311-28.229z"/></g></g><defs><clipPath id="a"><path fill="#fff" d="M0 0h400v180H0z"/></clipPath><clipPath id="b"><path fill="#fff" d="M111 90h181V0H111z"/></clipPath><clipPath id="c"><path fill="#fff" d="M290 180H110V90h180z"/></clipPath></defs></svg>
